img/PersonWithPlant.svg

<svg width="345" height="312" viewBox="0 0 345 312" fill="none" xmlns="http://www.w3.org/2000/svg">
<path d="M31.7407 312H230.259C230.456 312 230.644 311.947 230.783 311.854C230.922 311.76 231 311.633 231 311.5C231 311.367 230.922 311.24 230.783 311.146C230.644 311.053 230.456 311 230.259 311H31.7407C31.5443 311 31.3558 311.053 31.2169 311.146C31.078 311.24 31 311.367 31 311.5C31 311.633 31.078 311.76 31.2169 311.854C31.3558 311.947 31.5443 312 31.7407 312Z" fill="#CCCCCC"/>
<path d="M161.399 54.878C163.617 53.0287 166.521 42.0543 169.254 41.1106C166.964 45.3568 168.323 46.6184 167.997 51.4314C167.781 54.1623 167.909 56.9094 168.379 59.6081L213.338 62.7518L215.791 27.6621C216.012 24.5092 215.609 21.3437 214.607 18.3465C213.604 15.3492 212.021 12.5788 209.947 10.1935C207.874 7.80813 205.351 5.85459 202.523 4.44439C199.695 3.0342 196.616 2.19498 193.464 1.97462C192.259 1.91397 191.051 2.00539 189.869 2.24677C185.932 3.01995 182.267 4.81499 179.242 7.45181C176.218 10.0886 173.939 13.4745 172.636 17.2698C168.333 29.5587 161.424 50.0323 161.399 54.878Z" fill="#2F2E41"/>
<path d="M212.823 100.034L212.801 72.6172L228.916 74.0574L223.229 91.3494L225.891 134.813C227.182 135.103 228.36 135.762 229.283 136.71C230.206 137.658 230.833 138.855 231.088 140.153C231.343 141.451 231.215 142.796 230.719 144.023C230.223 145.249 229.38 146.305 228.295 147.061C227.209 147.818 225.927 148.242 224.604 148.282C223.282 148.322 221.976 147.976 220.847 147.287C219.717 146.598 218.813 145.595 218.244 144.4C217.674 143.206 217.465 141.872 217.64 140.56L212.823 100.034Z" fill="#FFB6B6"/>
<path d="M181.109 295.959L174.599 295.958L171.502 270.844H181.111L181.109 295.959Z" fill="#FFB6B6"/>
<path d="M183.314 292.746L173.023 292.132V296.542L163.238 303.3C162.755 303.634 162.391 304.113 162.199 304.668C162.007 305.224 161.998 305.826 162.173 306.387C162.348 306.947 162.697 307.437 163.171 307.786C163.644 308.134 164.216 308.321 164.803 308.321H177.056L179.168 303.959L179.992 308.321H184.612L183.314 292.746Z" fill="#2F2E41"/>
<path d="M218.754 295.959L212.243 295.958L209.147 270.844H218.755L218.754 295.959Z" fill="#FFB6B6"/>
<path d="M220.959 292.746L210.667 292.132V296.542L200.882 303.3C200.399 303.634 200.035 304.113 199.844 304.668C199.652 305.224 199.643 305.826 199.818 306.387C199.993 306.947 200.342 307.437 200.815 307.786C201.288 308.134 201.86 308.321 202.447 308.321H214.7L216.812 303.959L217.637 308.321H222.257L220.959 292.746Z" fill="#2F2E41"/>
<path d="M186.907 43.0088L200.394 43.2733L209.914 53.3234L217.547 54.4429C221 54.9494 224.174 56.6256 226.539 59.1915C228.904 61.7574 230.317 65.0575 230.542 68.5402L229.22 75.8039H221.286L216.696 102.754C218.481 107.302 218.602 110.892 214.939 112.302L203.568 133.724L169.982 118.649C168.279 115.721 167.733 112.779 169.474 109.919L167.073 68.663H159C159 60.9469 161.61 54.4419 169.277 53.5833C172.322 53.2537 175.382 53.0787 178.445 53.0589L186.907 43.0088Z" fill="#E6E6E6"/>
<path d="M169.982 118.65C169.982 118.65 202.774 124.468 214.939 112.302C214.939 112.302 216.174 114.399 218.035 117.877C218.57 118.877 219.604 119.554 220.228 120.766C220.795 121.866 222.255 123.22 222.873 124.469C223.37 125.473 222.572 126.786 223.09 127.871C229.319 140.939 236.598 159.373 235.038 171.545C234.031 179.395 231.953 197.66 229.764 217.278C229.593 218.811 230.978 220.78 230.806 222.325C230.644 223.782 228.925 224.814 228.763 226.274C228.655 227.244 229.856 228.233 229.748 229.201C229.631 230.264 228.205 231.305 228.088 232.363C225.089 259.451 222.344 284.741 222.344 284.741H207.005L204.111 226.982L206.477 205.927L200.923 163.346L193.254 203.811L192.267 226.585L184.163 285.799H169.982V228.476L168.924 225.498L169.982 221.679L168.924 217.564L169.982 213.083V118.65Z" fill="#2F2E41"/>
<path d="M182.156 34.3138C184.046 37.2283 186.873 39.412 190.17 40.5053C193.468 41.5985 197.039 41.5361 200.296 40.3284C203.553 39.1207 206.302 36.8396 208.089 33.8609C209.877 30.8821 210.597 27.3833 210.131 23.9407C209.665 20.498 208.04 17.3168 205.525 14.921C203.009 12.5251 199.753 11.0575 196.292 10.7597C192.831 10.462 189.372 11.3519 186.484 13.2829C183.596 15.214 181.452 18.071 180.405 21.3834C180.348 21.5631 180.298 21.7423 180.249 21.9285C179.673 24.0104 179.545 26.1908 179.874 28.3258C180.202 30.4608 180.98 32.5018 182.156 34.3138Z" fill="#FFB6B6"/>
<path d="M186.579 25.8115C187.208 24.2755 188.297 22.9719 189.696 22.0798C189.282 23.5884 189.195 25.1682 189.442 26.7131C193.321 27.8298 197.439 27.815 201.31 26.6704C204.307 25.3886 207.646 26.1993 211.252 28.6031C211.623 26.6938 211.615 24.7301 211.227 22.8241C210.84 20.9181 210.081 19.1071 208.993 17.4947C207.906 15.8822 206.511 14.4997 204.889 13.4263C203.267 12.3529 201.45 11.6096 199.541 11.2387L196.945 10.7341C193.089 9.9854 189.094 10.7987 185.838 12.9952C182.582 15.1916 180.332 18.5914 179.582 22.447C181.81 23.7721 184.152 24.898 186.579 25.8115Z" fill="#2F2E41"/>
<path d="M301.651 215.232C278.154 215.232 259.106 196.182 259.106 172.683C259.106 149.184 278.154 130.134 301.651 130.134C325.149 130.134 344.197 149.184 344.197 172.683C344.197 196.182 325.149 215.232 301.651 215.232Z" fill="#F0F0F0"/>
<path d="M192.51 160.504H304.117C305.702 160.5 307.221 159.869 308.342 158.748C309.463 157.627 310.094 156.108 310.099 154.523V100.136C310.095 98.551 309.463 97.032 308.343 95.9111C307.222 94.7902 305.703 94.1586 304.118 94.1543H192.51C190.926 94.1584 189.407 94.7898 188.286 95.9106C187.165 97.0313 186.533 98.5503 186.529 100.135V154.522C186.533 156.107 187.165 157.626 188.285 158.747C189.406 159.868 190.925 160.5 192.51 160.504Z" fill="white"/>
<path d="M192.51 160.504H304.117C305.702 160.5 307.221 159.869 308.342 158.748C309.463 157.627 310.094 156.108 310.099 154.523V100.136C310.095 98.551 309.463 97.032 308.343 95.9111C307.222 94.7902 305.703 94.1586 304.118 94.1543H192.51C190.926 94.1584 189.407 94.7898 188.286 95.9106C187.165 97.0313 186.533 98.5503 186.529 100.135V154.522C186.533 156.107 187.165 157.626 188.285 158.747C189.406 159.868 190.925 160.5 192.51 160.504ZM304.117 95.8229C305.26 95.8263 306.356 96.2819 307.164 97.0903C307.972 97.8986 308.427 98.9939 308.43 100.137V154.522C308.427 155.665 307.971 156.761 307.163 157.569C306.355 158.377 305.26 158.832 304.117 158.835H192.511C191.368 158.832 190.273 158.377 189.465 157.568C188.656 156.76 188.201 155.665 188.198 154.521V100.136C188.201 98.9931 188.657 97.8979 189.465 97.0897C190.273 96.2815 191.368 95.8261 192.511 95.8229L304.117 95.8229Z" fill="#3F3D56"/>
<path d="M242.332 152.467C264.343 152.467 287.295 152.256 295.859 152.12C296.986 152.097 298.059 151.634 298.849 150.83C299.639 150.027 300.084 148.946 300.088 147.819V102.799C300.088 102.396 299.927 102.009 299.642 101.723C299.357 101.437 298.971 101.276 298.567 101.274H198.064C197.661 101.275 197.274 101.435 196.988 101.72C196.702 102.005 196.541 102.392 196.54 102.795V133.34C196.559 138.326 198.531 143.107 202.033 146.655C205.535 150.204 210.289 152.238 215.274 152.322C223.255 152.426 232.706 152.467 242.332 152.467Z" fill="#69C5D7"/>
<path d="M204.03 130.534H294.843C295.603 130.532 296.344 130.296 296.966 129.857C297.587 129.419 298.059 128.8 298.316 128.085L308.595 99.2462C308.793 98.69 308.855 98.0943 308.775 97.5093C308.695 96.9243 308.476 96.367 308.136 95.8842C307.797 95.4014 307.346 95.0072 306.822 94.7347C306.298 94.4622 305.717 94.3194 305.127 94.3182L191.612 94.1602C191.073 94.1596 190.54 94.2774 190.05 94.5053C189.561 94.7331 189.128 95.0655 188.781 95.479C188.435 95.8924 188.183 96.377 188.044 96.8984C187.904 97.4197 187.881 97.9653 187.976 98.4966L187.888 98.5337L188.214 99.2943L188.217 99.302L200.643 128.298C200.926 128.962 201.398 129.528 202 129.925C202.603 130.323 203.308 130.535 204.03 130.534ZM191.607 95.8287L305.123 95.9868C305.447 95.9874 305.765 96.0656 306.052 96.2148C306.339 96.364 306.586 96.5799 306.772 96.8444C306.958 97.1089 307.078 97.4141 307.122 97.7346C307.166 98.0551 307.132 98.3813 307.023 98.686L296.745 127.523C296.604 127.915 296.345 128.255 296.005 128.495C295.664 128.735 295.258 128.864 294.841 128.865H204.03C203.635 128.866 203.249 128.75 202.919 128.532C202.59 128.315 202.331 128.005 202.177 127.642L189.75 98.6445L189.139 98.9065L189.75 98.6445C189.619 98.3372 189.565 98.0021 189.595 97.6691C189.625 97.3362 189.737 97.0158 189.921 96.7367C190.105 96.4576 190.355 96.2286 190.649 96.0701C190.944 95.9117 191.273 95.8287 191.607 95.8287Z" fill="#3F3D56"/>
<path d="M248.483 136.812C244.556 136.812 241.372 133.628 241.372 129.7C241.372 125.773 244.556 122.589 248.483 122.589C252.411 122.589 255.594 125.773 255.594 129.7C255.594 133.628 252.411 136.812 248.483 136.812Z" fill="white"/>
<path d="M159.404 93.6867L159.382 66.2695L175.497 67.7097L169.81 85.0017L190.454 116.3C191.745 116.589 192.924 117.248 193.847 118.197C194.77 119.145 195.397 120.341 195.652 121.639C195.906 122.938 195.778 124.282 195.282 125.509C194.786 126.736 193.944 127.791 192.858 128.548C191.772 129.304 190.49 129.728 189.168 129.768C187.845 129.808 186.54 129.462 185.41 128.773C184.281 128.084 183.376 127.081 182.807 125.887C182.238 124.692 182.028 123.358 182.204 122.047L159.404 93.6867Z" fill="#FFB6B6"/>
<path opacity="0.1" d="M45.2595 308C65.3835 308 81.6973 306.799 81.6973 305.317C81.6973 303.836 65.3835 302.635 45.2595 302.635C25.1354 302.635 8.82159 303.836 8.82159 305.317C8.82159 306.799 25.1354 308 45.2595 308Z" fill="#6AC5D7"/>
<path d="M47.9543 219.476H45.7783V260.218H47.9543V219.476Z" fill="#535461"/>
<path d="M61.6217 260.096L61.4838 261.931L61.2916 264.52L61.2118 265.601L61.0196 268.193L60.9362 269.273L60.744 271.863L58.5498 301.321C58.4555 302.589 57.784 303.778 56.6721 304.648C55.5602 305.518 54.0916 306.002 52.5656 306.002H41.1667C39.6411 306.002 38.1729 305.518 37.0617 304.648C35.9504 303.778 35.2796 302.588 35.1861 301.321L32.9883 271.863L32.796 269.273L32.7163 268.193L32.5204 265.601L32.4406 264.52L32.2484 261.931L32.1106 260.096C32.0846 259.744 32.1454 259.391 32.2895 259.059C32.4336 258.727 32.6578 258.423 32.9483 258.166C33.2388 257.909 33.5895 257.705 33.9787 257.565C34.3679 257.425 34.7875 257.352 35.2115 257.353H58.5244C58.9482 257.353 59.3676 257.425 59.7566 257.565C60.1456 257.705 60.496 257.91 60.7862 258.167C61.0764 258.424 61.3002 258.728 61.4439 259.059C61.5876 259.391 61.6481 259.744 61.6217 260.096Z" fill="#65617D"/>
<path d="M61.4837 261.93L61.2915 264.519H32.4405L32.2484 261.93H61.4837Z" fill="#9D9CB5"/>
<path d="M61.2117 265.601L61.0195 268.193H32.7163L32.5204 265.601H61.2117Z" fill="#9D9CB5"/>
<path d="M60.9362 269.272L60.744 271.862H32.9884L32.7962 269.272H60.9362Z" fill="#9D9CB5"/>
<path d="M28.9272 234.747C41.5927 242.371 46.8661 254.296 46.8661 254.296C46.8661 254.296 31.6045 253.861 18.939 246.237C6.27338 238.613 1 226.688 1 226.688C1 226.688 16.2616 227.123 28.9272 234.747Z" fill="#6AC5D7"/>
<path d="M1 226.688C1 226.688 16.8406 234.005 21.9224 240.062C27.0041 246.119 46.8661 254.296 46.8661 254.296" stroke="#535461" stroke-width="2" stroke-miterlimit="10"/>
<path d="M37.1021 219.387C43.9958 223.536 46.8661 230.027 46.8661 230.027C46.8661 230.027 38.5594 229.79 31.6656 225.641C24.7718 221.491 21.9015 215 21.9015 215C21.9015 215 30.2083 215.237 37.1021 219.387Z" fill="#6AC5D7"/>
<path d="M21.9015 215C21.9015 215 30.5234 218.983 33.2894 222.28C36.0553 225.577 46.8661 230.027 46.8661 230.027" stroke="#535461" stroke-width="2" stroke-miterlimit="10"/>
<path d="M56.8839 229.695C48.9658 236.937 47.2908 246.4 47.2908 246.4C47.2908 246.4 58.4537 244.12 66.3718 236.878C74.29 229.636 75.965 220.174 75.965 220.174C75.965 220.174 64.8021 222.453 56.8839 229.695Z" fill="#6AC5D7"/>
<path d="M75.965 220.174C75.965 220.174 65.6508 227.597 63.0295 232.712C60.4083 237.827 47.2908 246.4 47.2908 246.4" stroke="#535461" stroke-width="2" stroke-miterlimit="10"/>
</svg>

<svg width="345" height="312" fill="none" xmlns="http://www.w3.org/2000/svg"><path d="M31.74 312H230.26a.956.956 0 0 0 .524-.146c.139-.094.217-.221.217-.354 0-.133-.078-.26-.217-.354a.956.956 0 0 0-.524-.146H31.741a.957.957 0 0 0-.524.146c-.139.094-.217.221-.217.354 0 .133.078.26.217.354a.957.957 0 0 0 .524.146z" fill="#CCC"/><path d="M161.399 54.878c2.218-1.85 5.122-12.824 7.855-13.767-2.29 4.246-.931 5.507-1.257 10.32a32.651 32.651 0 0 0 .382 8.177l44.959 3.144 2.453-35.09a24.073 24.073 0 0 0-5.844-17.468 24.061 24.061 0 0 0-16.483-8.22 14.36 14.36 0 0 0-3.595.273 22.885 22.885 0 0 0-17.233 15.023c-4.303 12.289-11.212 32.762-11.237 37.608z" fill="#2F2E41"/><path d="m212.823 100.034-.022-27.417 16.115 1.44-5.687 17.292 2.662 43.464a6.82 6.82 0 1 1-5.044 12.474 6.819 6.819 0 0 1-3.207-6.727l-4.817-40.526zM181.109 295.959l-6.51-.001-3.097-25.114h9.609l-.002 25.115z" fill="#FFB6B6"/><path d="m183.314 292.746-10.291-.614v4.41l-9.785 6.758a2.76 2.76 0 0 0-1.065 3.087 2.759 2.759 0 0 0 2.63 1.934h12.253l2.112-4.362.824 4.362h4.62l-1.298-15.575z" fill="#2F2E41"/><path d="m218.754 295.959-6.511-.001-3.096-25.114h9.608l-.001 25.115z" fill="#FFB6B6"/><path d="m220.959 292.746-10.292-.614v4.41l-9.785 6.758a2.753 2.753 0 0 0-1.064 3.087 2.754 2.754 0 0 0 2.629 1.934H214.7l2.112-4.362.825 4.362h4.62l-1.298-15.575z" fill="#2F2E41"/><path d="m186.907 43.009 13.487.264 9.52 10.05 7.633 1.12a15.236 15.236 0 0 1 12.995 14.097l-1.322 7.264h-7.934l-4.59 26.95c1.785 4.548 1.906 8.138-1.757 9.548l-11.371 21.422-33.586-15.075c-1.703-2.928-2.249-5.87-.508-8.73l-2.401-41.256H159c0-7.716 2.61-14.221 10.277-15.08a90.638 90.638 0 0 1 9.168-.524l8.462-10.05z" fill="#E6E6E6"/><path d="M169.982 118.65s32.792 5.818 44.957-6.348c0 0 1.235 2.097 3.096 5.575.535 1 1.569 1.677 2.193 2.889.567 1.1 2.027 2.454 2.645 3.703.497 1.004-.301 2.317.217 3.402 6.229 13.068 13.508 31.502 11.948 43.674-1.007 7.85-3.085 26.115-5.274 45.733-.171 1.533 1.214 3.502 1.042 5.047-.162 1.457-1.881 2.489-2.043 3.949-.108.97 1.093 1.959.985 2.927-.117 1.063-1.543 2.104-1.66 3.162-2.999 27.088-5.744 52.378-5.744 52.378h-15.339l-2.894-57.759 2.366-21.055-5.554-42.581-7.669 40.465-.987 22.774-8.104 59.214h-14.181v-57.323l-1.058-2.978 1.058-3.819-1.058-4.115 1.058-4.481V118.65z" fill="#2F2E41"/><path d="M182.156 34.314a15.286 15.286 0 0 0 25.933-.453 15.29 15.29 0 0 0-11.797-23.101 15.288 15.288 0 0 0-15.887 10.623c-.057.18-.107.36-.156.546a15.27 15.27 0 0 0 1.907 12.385z" fill="#FFB6B6"/><path d="M186.579 25.811a8.04 8.04 0 0 1 3.117-3.731 10.966 10.966 0 0 0-.254 4.633 21.186 21.186 0 0 0 11.868-.043c2.997-1.281 6.336-.47 9.942 1.933a14.81 14.81 0 0 0-11.711-17.364l-2.596-.505a14.812 14.812 0 0 0-17.363 11.713 44.035 44.035 0 0 0 6.997 3.364z" fill="#2F2E41"/><path d="M301.651 215.232c-23.497 0-42.545-19.05-42.545-42.549s19.048-42.549 42.545-42.549c23.498 0 42.546 19.05 42.546 42.549s-19.048 42.549-42.546 42.549z" fill="#F0F0F0"/><path d="M192.51 160.504h111.607a5.996 5.996 0 0 0 5.982-5.981v-54.387a6 6 0 0 0-5.981-5.982H192.51a5.997 5.997 0 0 0-5.981 5.981v54.387a6 6 0 0 0 5.981 5.982z" fill="#fff"/><path d="M192.51 160.504h111.607a5.996 5.996 0 0 0 5.982-5.981v-54.387a6 6 0 0 0-5.981-5.982H192.51a5.997 5.997 0 0 0-5.981 5.981v54.387a6 6 0 0 0 5.981 5.982zm111.607-64.681a4.327 4.327 0 0 1 4.313 4.314v54.385a4.327 4.327 0 0 1-4.313 4.313H192.511a4.32 4.32 0 0 1-3.046-1.267 4.32 4.32 0 0 1-1.267-3.047v-54.385a4.325 4.325 0 0 1 4.313-4.313h111.606z" fill="#3F3D56"/><path d="M242.332 152.467c22.011 0 44.963-.211 53.527-.347a4.315 4.315 0 0 0 4.229-4.301v-45.02a1.526 1.526 0 0 0-1.521-1.525H198.064a1.53 1.53 0 0 0-1.524 1.521v30.545a19.059 19.059 0 0 0 18.734 18.982c7.981.104 17.432.145 27.058.145z" fill="#69C5D7"/><path d="M204.03 130.534h90.813a3.698 3.698 0 0 0 3.473-2.449l10.279-28.839a3.69 3.69 0 0 0-3.468-4.928l-113.515-.158a3.694 3.694 0 0 0-2.831 1.319 3.696 3.696 0 0 0-.805 3.018l-.088.037.326.76.003.008 12.426 28.996a3.675 3.675 0 0 0 3.387 2.236zm-12.423-34.705 113.516.158a2.02 2.02 0 0 1 1.9 2.699l-10.278 28.837a2.03 2.03 0 0 1-1.904 1.342H204.03a2.006 2.006 0 0 1-1.853-1.223L189.75 98.644l-.611.262.611-.262a2.025 2.025 0 0 1 .899-2.574c.295-.158.624-.241.958-.241z" fill="#3F3D56"/><path d="M248.483 136.812a7.112 7.112 0 1 1 .001-14.223 7.112 7.112 0 0 1-.001 14.223z" fill="#fff"/><path d="m159.404 93.687-.022-27.418 16.115 1.44-5.687 17.293 20.644 31.298a6.818 6.818 0 1 1-8.25 5.747l-22.8-28.36z" fill="#FFB6B6"/><path opacity=".1" d="M45.26 308c20.123 0 36.437-1.201 36.437-2.683 0-1.481-16.314-2.682-36.438-2.682-20.124 0-36.437 1.201-36.437 2.682 0 1.482 16.313 2.683 36.438 2.683z" fill="#6AC5D7"/><path d="M47.954 219.476h-2.176v40.742h2.176v-40.742z" fill="#535461"/><path d="m61.622 260.096-.138 1.835-.192 2.589-.08 1.081-.192 2.592-.084 1.08-.192 2.59-2.194 29.458c-.094 1.268-.766 2.457-1.878 3.327-1.112.87-2.58 1.354-4.106 1.354h-11.4c-1.525 0-2.993-.484-4.104-1.354-1.112-.87-1.782-2.06-1.876-3.327l-2.198-29.458-.192-2.59-.08-1.08-.196-2.592-.08-1.081-.192-2.589-.137-1.835a2.19 2.19 0 0 1 .178-1.037c.145-.332.369-.636.66-.893.29-.257.64-.461 1.03-.601.389-.14.809-.213 1.233-.212h23.312c.424 0 .844.072 1.233.212.389.14.739.345 1.03.602.29.257.513.561.657.892.144.332.204.685.178 1.037z" fill="#65617D"/><path d="m61.484 261.93-.193 2.589h-28.85l-.193-2.589h29.236zM61.212 265.601l-.193 2.592H32.716l-.196-2.592h28.692zM60.936 269.272l-.192 2.59H32.988l-.192-2.59h28.14z" fill="#9D9CB5"/><path d="M28.927 234.747c12.666 7.624 17.94 19.549 17.94 19.549s-15.262-.435-27.928-8.059S1 226.688 1 226.688s15.262.435 27.927 8.059z" fill="#6AC5D7"/><path d="M1 226.688s15.84 7.317 20.922 13.374c5.082 6.057 24.944 14.234 24.944 14.234" stroke="#535461" stroke-width="2" stroke-miterlimit="10"/><path d="M37.102 219.387c6.894 4.149 9.764 10.64 9.764 10.64s-8.307-.237-15.2-4.386C24.772 221.491 21.9 215 21.9 215s8.307.237 15.201 4.387z" fill="#6AC5D7"/><path d="M21.901 215s8.622 3.983 11.388 7.28 13.577 7.747 13.577 7.747" stroke="#535461" stroke-width="2" stroke-miterlimit="10"/><path d="M56.884 229.695c-7.918 7.242-9.593 16.705-9.593 16.705s11.163-2.28 19.08-9.522c7.919-7.242 9.594-16.704 9.594-16.704s-11.163 2.279-19.081 9.521z" fill="#6AC5D7"/><path d="M75.965 220.174s-10.314 7.423-12.936 12.538c-2.62 5.115-15.738 13.688-15.738 13.688" stroke="#535461" stroke-width="2" stroke-miterlimit="10"/></svg>
